X:3023
L:1/8
M:4/4
K:D
"^A" ff |:"D" f2 a2 a2 dd |"D" d2 f2 f2 AA |"D" A2 d2 eedd |"A7" c6 gg |"Em" g2 b2 b2 ee | 
"A7" e2 g2 g3 A |"A7" A2 AA Aceg |"D" (ba)aa a2 ff |"D" f2 a2 a2 dd |"D" d2 f2 f2 AA | 
"D" A2 d2 cc=cc |"G" B8 |"G" g3 g g3 g |"D" (f!slide!a)aa a4 |"A7" Acef gece |1"D" d2 AF D2 z f :|2 
"D" d3 d B2 =c2 ||[K:G]"^B1""G" d3 d e2 f2 |"G" g3 g f2 g2 |"Am" a2 cc cdcB |"Am" cB A2 gggg | 
"D7" f2 cc cdcB |"D7" cBAd ffdf |"C#dim" e2 BB BdBd |"G" B3 B B2 c2 |"G" d2 dd edBd | 
"G" g3 g f2 g2 |"C" a2 cc cdcB |"Am" cB A2 gggg |"D7" f4- fa fe |"D7" d2 ed ^cdef | 
"_(See below for variation)""G" g4 (gf)ga |"G" g3 B B2 c2 ||"^B2""G" d2 dd edBd |"G" ggBg f2 g2 | 
"Am" accc cdcB |"Am" cBAd ggBg |"D7" f2 cc cdcB |"D7" cBAd ffdf |"C#dim" eBBB BdBd | 
"G" B3 B B2 c2 |"G" d2 dd edBd |"G" g3 g f2 g2 |"Am" a2 cc cdcB |"Am" cB A2 gggg |"D7" f4- fa fe | 
"D7" d2 ed ^cdef |"G" g3 (g- gf)ga |"G" g z z2 gzzf |]"_100,30 Measure 2 in A1 & A2:" | 
"^A1" d2 f2 f2 AA ||"^A2" dfff f3 A ||

